flaticon/design/pen.svg

<svg xmlns="http://www.w3.org/2000/svg" width="32" height="32" viewBox="0 0 24 24">
    <path d="M 23.878906 2.378906 L 21.617188 0.117188 C 21.460938 -0.0390625 21.207031 -0.0390625 21.050781 0.117188 L 19.851562 1.316406 C 19.703125 1.167969 19.4375 1.167969 19.285156 1.316406 L 18.15625 2.449219 L 17.589844 1.882812 C 17.433594 1.726562 17.179688 1.726562 17.023438 1.882812 L 13.066406 5.839844 C 12.910156 5.996094 12.910156 6.25 13.066406 6.40625 C 13.144531 6.484375 13.246094 6.523438 13.347656 6.523438 C 13.453125 6.523438 13.554688 6.484375 13.632812 6.40625 L 17.308594 2.730469 L 17.589844 3.011719 L 5.707031 14.894531 C 5.550781 15.050781 5.550781 15.304688 5.707031 15.460938 L 4.894531 16.273438 C 4.117188 15.765625 3.0625 15.851562 2.382812 16.53125 C 2.308594 16.605469 2.265625 16.707031 2.265625 16.8125 C 2.265625 16.921875 2.308594 17.023438 2.382812 17.097656 C 2.535156 17.246094 2.617188 17.449219 2.617188 17.660156 C 2.617188 17.875 2.535156 18.078125 2.382812 18.226562 C 2.082031 18.53125 1.554688 18.53125 1.25 18.226562 C 1.144531 18.121094 0.984375 18.082031 0.835938 18.132812 C 0.691406 18.183594 0.589844 18.3125 0.570312 18.464844 L 0.0078125 23.554688 C -0.0078125 23.675781 0.0351562 23.796875 0.121094 23.882812 C 0.195312 23.957031 0.296875 24 0.402344 24 C 0.417969 24 0.433594 24 0.449219 23.996094 L 5.539062 23.433594 C 5.691406 23.414062 5.820312 23.3125 5.871094 23.167969 C 5.921875 23.023438 5.882812 22.859375 5.777344 22.75 C 5.625 22.601562 5.542969 22.398438 5.542969 22.1875 C 5.542969 21.972656 5.625 21.773438 5.777344 21.621094 C 6.078125 21.320312 6.605469 21.320312 6.90625 21.621094 C 7.058594 21.769531 7.324219 21.769531 7.472656 21.621094 C 8.15625 20.9375 8.238281 19.875 7.722656 19.101562 L 8.535156 18.289062 C 8.609375 18.363281 8.710938 18.40625 8.816406 18.40625 C 8.921875 18.40625 9.023438 18.363281 9.097656 18.289062 L 22.679688 4.710938 C 22.835938 4.554688 22.835938 4.300781 22.679688 4.144531 L 23.878906 2.945312 C 24.035156 2.789062 24.035156 2.535156 23.878906 2.378906 Z M 7.109375 20.785156 C 6.515625 20.453125 5.707031 20.558594 5.210938 21.054688 C 4.910156 21.359375 4.742188 21.757812 4.742188 22.1875 C 4.742188 22.367188 4.773438 22.542969 4.828125 22.707031 L 1.496094 23.078125 L 2.628906 21.945312 C 2.683594 21.972656 2.742188 21.992188 2.804688 21.992188 L 3.601562 21.992188 C 3.707031 21.992188 3.8125 21.949219 3.886719 21.875 L 4.285156 21.476562 C 4.359375 21.402344 4.402344 21.300781 4.402344 21.191406 L 4.402344 20.394531 C 4.402344 20.285156 4.359375 20.183594 4.285156 20.109375 L 3.886719 19.710938 C 3.8125 19.636719 3.707031 19.59375 3.601562 19.59375 L 2.804688 19.59375 C 2.695312 19.59375 2.59375 19.636719 2.519531 19.710938 L 2.121094 20.109375 C 2.046875 20.183594 2.003906 20.285156 2.003906 20.394531 L 2.003906 21.191406 C 2.003906 21.261719 2.027344 21.324219 2.058594 21.382812 L 0.925781 22.511719 L 1.296875 19.175781 C 1.855469 19.367188 2.519531 19.222656 2.949219 18.792969 C 3.460938 18.28125 3.554688 17.5 3.21875 16.894531 C 3.675781 16.644531 4.257812 16.710938 4.644531 17.097656 C 4.648438 17.097656 4.648438 17.101562 4.652344 17.105469 L 6.90625 19.359375 C 7.292969 19.742188 7.359375 20.328125 7.109375 20.785156 Z M 2.804688 21.027344 L 2.804688 20.558594 L 2.96875 20.394531 L 3.4375 20.394531 L 3.601562 20.558594 L 3.601562 21.027344 L 3.4375 21.191406 L 2.96875 21.191406 Z M 7.183594 18.507812 L 5.488281 16.808594 L 6.257812 16.042969 L 7.953125 17.738281 Z M 8.816406 17.441406 L 6.554688 15.179688 L 11.777344 9.957031 L 12.339844 10.523438 C 12.417969 10.601562 12.523438 10.640625 12.625 10.640625 C 12.726562 10.640625 12.828125 10.601562 12.90625 10.523438 C 13.0625 10.367188 13.0625 10.113281 12.90625 9.957031 L 12.339844 9.394531 L 13.066406 8.667969 L 13.914062 9.515625 C 13.992188 9.59375 14.09375 9.632812 14.195312 9.632812 C 14.300781 9.632812 14.402344 9.59375 14.480469 9.515625 C 14.636719 9.359375 14.636719 9.105469 14.480469 8.949219 L 13.632812 8.101562 L 14.355469 7.378906 L 16.617188 9.640625 Z M 17.179688 9.074219 L 14.917969 6.8125 L 19.570312 2.164062 L 21.832031 4.425781 Z M 22.125 3.570312 L 20.425781 1.871094 L 21.335938 0.964844 L 23.03125 2.660156 Z M 22.125 3.570312"/>
</svg>

<svg xmlns="http://www.w3.org/2000/svg" width="32" height="32" viewBox="0 0 24 24">
    <path d="M23.879 2.379L21.617.117a.4.4 0 0 0-.566 0l-1.2 1.2a.416.416 0 0 0-.566 0l-1.129 1.132-.566-.566a.4.4 0 0 0-.567 0L13.066 5.84a.4.4 0 0 0 .567.566l3.676-3.676.28.282L5.708 14.895a.4.4 0 0 0 0 .566l-.812.812a2.007 2.007 0 0 0-2.512.258.4.4 0 0 0 0 .567.783.783 0 0 1 .234.562.785.785 0 0 1-.234.567.816.816 0 0 1-1.133 0 .401.401 0 0 0-.68.238l-.562 5.09A.4.4 0 0 0 .403 24c.015 0 .03 0 .046-.004l5.09-.562a.404.404 0 0 0 .332-.266.412.412 0 0 0-.094-.418.783.783 0 0 1-.234-.563c0-.214.082-.414.234-.566.301-.3.828-.3 1.13 0a.416.416 0 0 0 .566 0 2.003 2.003 0 0 0 .25-2.52l.812-.812a.4.4 0 0 0 .563 0L22.68 4.711a.4.4 0 0 0 0-.566l1.199-1.2a.4.4 0 0 0 0-.566zM7.109 20.785a1.626 1.626 0 0 0-1.898.27 1.6 1.6 0 0 0-.383 1.652l-3.332.371 1.133-1.133a.393.393 0 0 0 .176.047h.797c.105 0 .21-.043.285-.117l.398-.398a.402.402 0 0 0 .117-.286v-.796c0-.11-.043-.211-.117-.286l-.398-.398a.409.409 0 0 0-.285-.117h-.797c-.11 0-.211.043-.285.117l-.399.398a.402.402 0 0 0-.117.286v.796c0 .07.023.133.055.192L.926 22.512l.37-3.336a1.631 1.631 0 0 0 1.653-.383 1.597 1.597 0 0 0 .27-1.898 1.2 1.2 0 0 1 1.426.203c.003 0 .003.004.007.007l2.254 2.254c.387.383.453.97.203 1.426zm-4.304.242v-.468l.164-.164h.469l.164.164v.468l-.164.164h-.47zm4.379-2.52L5.488 16.81l.77-.766 1.695 1.695zm1.632-1.066L6.555 15.18l5.222-5.223.563.566a.405.405 0 0 0 .285.118.4.4 0 0 0 .281-.684l-.566-.562.726-.727.848.848a.399.399 0 0 0 .566 0 .4.4 0 0 0 0-.567l-.847-.847.722-.723 2.262 2.262zm8.364-8.367l-2.262-2.261 4.652-4.649 2.262 2.262zm4.945-5.504l-1.7-1.699.91-.906 1.696 1.695zm0 0"/>
</svg>
